X: 718
T: Are You Willing   #2
%S: s:2 b:12(6+6)
B: Francis O'Neill: "The Dance Music of Ireland" (1907) #718
R: reel
Z: Frank Nordberg - http://www.musicaviva.com
F: http://www.musicaviva.com/abc/tunes/ireland/oneill-1001/0718/oneill-1001-0718-1.abc
%m: Tn = (3n/o/n/
M: C|
L: 1/8
K: A
"^A"|: A2(EA) FAEA | ABcA BABc |[1 A2(EA) FAEA | faed cABc :|[2 defg Tagae | fdBd cAA2 |]
"^B"|: agae fece | dBcA BAFA |[1 Tagae fgae | fdBd cAAg :|[2 A,CEA ceae | fdBd cAA2 |]
